;FLAVOR:RepRap
;TIME:5280
;Generated with Cura_SteamEngine 2.3.1
G21 ; set units to millimeters
G90 ; use absolute positioning
M82 ; absolute extrusion mode
G28 W ; home all without mesh bed level
G80 ; mesh bed leveling
M104 S200 ; set extruder temp
M140 S60 ; set bed temp
M190 S60 ; wait for bed temp
M109 S200 ; wait for extruder temp
G92 E0.0 ; reset extruder distance position
G1 Y-3.0 F1000.0 ; go outside print area
G1 X60.0 E9.0 F1000.0 ; intro line
G1 X100.0 E21.5 F1000.0 ; intro line
G92 E0.0 ; reset extruder distance position
;LAYER_COUNT:200
;LAYER:0
M107
G1 F2100 E-0.8
G0 F3600 X147.372 Y96.651 Z.15
;TYPE:SKIRT
G1 F2100 E0
G1 F1800 X147.706 Y96.213 E0.01374
G1 X148.101 Y95.829 E0.02748
G1 X148.547 Y95.505 E0.04123
G1 X149.035 Y95.25 E0.05497
G1 X149.555 Y95.067 E0.06872
G1 X150.096 Y94.962 E0.08247
G1 X150.549 Y94.935 E0.09379
G1 X170.549 Y94.935 E0.59269
G1 X171.099 Y94.975 E0.60645
G1 X171.637 Y95.094 E0.62019
G1 X172.152 Y95.29 E0.63394
G1 X172.633 Y95.558 E0.64767
G1 X173.071 Y95.892 E0.66141
G1 X173.455 Y96.287 E0.67515
G1 X173.779 Y96.733 E0.6889
G1 X174.034 Y97.221 E0.70264
G1 X174.217 Y97.741 E0.71639
G1 X174.322 Y98.282 E0.73014
G1 X174.349 Y98.735 E0.74146
G1 X174.349 Y118.734 E1.24034
G1 X174.309 Y119.284 E1.25409
G1 X174.19 Y119.822 E1.26784
G1 X173.994 Y120.337 E1.28158
G1 X173.726 Y120.818 E1.29532
G1 X173.392 Y121.256 E1.30906
G1 X172.997 Y121.64 E1.3228
G1 X172.551 Y121.964 E1.33655
G1 X172.063 Y122.219 E1.35029
G1 X171.543 Y122.402 E1.36404
G1 X171.002 Y122.507 E1.37778
G1 X170.549 Y122.534 E1.3891
G1 X150.549 Y122.534 E1.88801
G1 X149.999 Y122.494 E1.90176
G1 X149.461 Y122.375 E1.91551
G1 X148.946 Y122.179 E1.92925
G1 X148.465 Y121.911 E1.94299
G1 X148.027 Y121.577 E1.95673
G1 X147.643 Y121.182 E1.97047
G1 X147.319 Y120.736 E1.98422
G1 X147.064 Y120.248 E1.99796
G1 X146.881 Y119.728 E2.01171
G1 X146.776 Y119.187 E2.02546
G1 X146.749 Y118.734 E2.03678
G1 X146.749 Y98.735 E2.53565
G1 X146.789 Y98.185 E2.54941
G1 X146.908 Y97.647 E2.56315
G1 X147.104 Y97.132 E2.5769
G1 X147.372 Y96.651 E2.59063
G0 F3600 X147.769 Y96.777
G1 F1800 X148.101 Y96.375 E2.60364
G1 X148.491 Y96.029 E2.61665
G1 X148.929 Y95.746 E2.62965
G1 X149.404 Y95.533 E2.64264
G1 X149.907 Y95.396 E2.65564
G1 X150.549 Y95.335 E2.67173
G1 X170.549 Y95.335 E3.17063
G1 X171.069 Y95.375 E3.18364
G1 X171.576 Y95.494 E3.19663
G1 X172.059 Y95.689 E3.20963
G1 X172.507 Y95.955 E3.22262
G1 X172.909 Y96.287 E3.23563
G1 X173.255 Y96.677 E3.24863
G1 X173.538 Y97.115 E3.26164
G1 X173.751 Y97.59 E3.27463
G1 X173.888 Y98.093 E3.28763
G1 X173.949 Y98.735 E3.30372
G1 X173.949 Y118.734 E3.8026
G1 X173.909 Y119.254 E3.81561
G1 X173.79 Y119.761 E3.8286
G1 X173.595 Y120.244 E3.84159
G1 X173.329 Y120.692 E3.85459
G1 X172.997 Y121.094 E3.86759
G1 X172.607 Y121.44 E3.8806
G1 X172.169 Y121.723 E3.89361
G1 X171.694 Y121.936 E3.90659
G1 X171.191 Y122.073 E3.9196
G1 X170.549 Y122.134 E3.93568
G1 X150.549 Y122.134 E4.43459
G1 X150.029 Y122.094 E4.4476
G1 X149.522 Y121.975 E4.46059
G1 X149.039 Y121.78 E4.47358
G1 X148.591 Y121.514 E4.48658
G1 X148.189 Y121.182 E4.49958
G1 X147.843 Y120.792 E4.51259
G1 X147.56 Y120.354 E4.5256
G1 X147.347 Y119.879 E4.53858
G1 X147.21 Y119.376 E4.55159
G1 X147.149 Y118.734 E4.56767
G1 X147.149 Y98.735 E5.06655
G1 X147.189 Y98.215 E5.07956
G1 X147.308 Y97.708 E5.09255
G1 X147.503 Y97.225 E5.10554
G1 X147.769 Y96.777 E5.11854
G0 F3600 X148.167 Y96.911
G1 F1800 X148.495 Y96.548 E5.13074
G1 X148.878 Y96.243 E5.14296
G1 X149.306 Y96.005 E5.15517
G1 X149.766 Y95.839 E5.16737
G1 X150.247 Y95.75 E5.17958
G1 X150.549 Y95.735 E5.18712
G1 X170.549 Y95.735 E5.68602
G1 X171.037 Y95.775 E5.69823
G1 X171.512 Y95.894 E5.71045
G1 X171.961 Y96.088 E5.72265
G1 X172.373 Y96.353 E5.73487
G1 X172.736 Y96.681 E5.74707
G1 X173.041 Y97.064 E5.75929
G1 X173.279 Y97.492 E5.7715
G1 X173.445 Y97.952 E5.7837
G1 X173.534 Y98.433 E5.79591
G1 X173.549 Y98.735 E5.80345
G1 X173.549 Y118.734 E6.30232
G1 X173.509 Y119.222 E6.31454
G1 X173.39 Y119.697 E6.32675
G1 X173.196 Y120.146 E6.33896
G1 X172.931 Y120.558 E6.35117
G1 X172.603 Y120.921 E6.36338
G1 X172.22 Y121.226 E6.37559
G1 X171.792 Y121.464 E6.38781
G1 X171.332 Y121.63 E6.40001
G1 X170.851 Y121.719 E6.41221
G1 X170.549 Y121.734 E6.41975
G1 X150.549 Y121.734 E6.91865
G1 X150.061 Y121.694 E6.93087
G1 X149.586 Y121.575 E6.94308
G1 X149.137 Y121.381 E6.95528
G1 X148.725 Y121.116 E6.9675
G1 X148.362 Y120.788 E6.97971
G1 X148.057 Y120.405 E6.99192
G1 X147.819 Y119.977 E7.00414
G1 X147.653 Y119.517 E7.01634
G1 X147.564 Y119.036 E7.02854
G1 X147.549 Y118.734 E7.03608
G1 X147.549 Y98.735 E7.53496
G1 X147.589 Y98.247 E7.54717
G1 X147.708 Y97.772 E7.55939
G1 X147.902 Y97.323 E7.57159
G1 X148.167 Y96.911 E7.58381
G0 F3600 X148.564 Y97.056
G1 F1800 X148.887 Y96.735 E7.59517
G1 X149.262 Y96.476 E7.60654
G1 X149.676 Y96.286 E7.6179
G1 X150.117 Y96.171 E7.62927
G1 X150.549 Y96.135 E7.64008
G1 X170.549 Y96.135 E8.13898
G1 X171.003 Y96.175 E8.15035
G1 X171.443 Y96.293 E8.16172
G1 X171.855 Y96.487 E8.17308
G1 X172.228 Y96.75 E8.18446
G1 X172.549 Y97.073 E8.19582
G1 X172.808 Y97.448 E8.20719
G1 X172.998 Y97.862 E8.21855
G1 X173.113 Y98.303 E8.22992
G1 X173.149 Y98.735 E8.24074
G1 X173.149 Y118.734 E8.73961
G1 X173.109 Y119.188 E8.75098
G1 X172.991 Y119.628 E8.76234
G1 X172.797 Y120.04 E8.7737
G1 X172.534 Y120.413 E8.78509
G1 X172.211 Y120.734 E8.79645
G1 X171.836 Y120.993 E8.80782
G1 X171.422 Y121.183 E8.81918
G1 X170.981 Y121.298 E8.83055
G1 X170.549 Y121.334 E8.84136
G1 X150.549 Y121.334 E9.34026
G1 X150.095 Y121.294 E9.35163
G1 X149.655 Y121.176 E9.363
G1 X149.243 Y120.982 E9.37436
G1 X148.87 Y120.719 E9.38574
G1 X148.549 Y120.396 E9.3971
G1 X148.29 Y120.021 E9.40847
G1 X148.1 Y119.607 E9.41983
G1 X147.985 Y119.166 E9.4312
G1 X147.949 Y118.734 E9.44202
G1 X147.949 Y98.735 E9.94089
G1 X147.989 Y98.281 E9.95226
G1 X148.107 Y97.841 E9.96363
G1 X148.301 Y97.429 E9.97499
G1 X148.564 Y97.056 E9.98637
G0 F3600 X148.959 Y97.215
G1 F1800 X149.276 Y96.941 E9.99682
G1 X149.639 Y96.732 E10.00727
G1 X150.036 Y96.596 E10.01774
G1 X150.549 Y96.535 E10.03063
G1 X170.549 Y96.535 E10.52953
G1 X170.966 Y96.575 E10.53998
G1 X171.368 Y96.693 E10.55043
G1 X171.74 Y96.886 E10.56088
G1 X172.069 Y97.145 E10.57133
G1 X172.343 Y97.462 E10.58178
G1 X172.552 Y97.825 E10.59223
G1 X172.688 Y98.222 E10.6027
G1 X172.749 Y98.735 E10.61558
G1 X172.749 Y118.734 E11.11446
G1 X172.709 Y119.151 E11.12491
G1 X172.591 Y119.553 E11.13536
G1 X172.398 Y119.925 E11.14582
G1 X172.139 Y120.254 E11.15626
G1 X171.822 Y120.528 E11.16671
G1 X171.459 Y120.737 E11.17716
G1 X171.062 Y120.873 E11.18763
G1 X170.549 Y120.934 E11.20052
G1 X150.549 Y120.934 E11.69942
G1 X150.132 Y120.894 E11.70987
G1 X149.73 Y120.776 E11.72032
G1 X149.358 Y120.583 E11.73077
G1 X149.029 Y120.324 E11.74122
G1 X148.755 Y120.007 E11.75167
G1 X148.546 Y119.644 E11.76212
G1 X148.41 Y119.247 E11.77259
G1 X148.349 Y118.734 E11.78547
G1 X148.349 Y98.735 E12.28435
G1 X148.389 Y98.318 E12.2948
G1 X148.507 Y97.916 E12.30525
G1 X148.7 Y97.544 E12.31571
G1 X148.959 Y97.215 E12.32615
G0 F3600 X149.352 Y97.39
G1 F1800 X149.661 Y97.17 E12.33561
G1 X150.008 Y97.018 E12.34506
G1 X150.549 Y96.935 E12.35872
G1 X170.549 Y96.935 E12.85762
G1 X170.926 Y96.975 E12.86708
G1 X171.286 Y97.093 E12.87653
G1 X171.613 Y97.283 E12.88596
G1 X171.894 Y97.538 E12.89543
G1 X172.114 Y97.847 E12.90489
G1 X172.266 Y98.194 E12.91434
G1 X172.349 Y98.735 E12.92799
G1 X172.349 Y118.734 E13.42687
G1 X172.309 Y119.111 E13.43633
G1 X172.191 Y119.471 E13.44578
G1 X172.001 Y119.798 E13.45521
G1 X171.746 Y120.079 E13.46468
G1 X171.437 Y120.299 E13.47414
G1 X171.09 Y120.451 E13.48359
G1 X170.549 Y120.534 E13.49724
G1 X150.549 Y120.534 E13.99614
G1 X150.172 Y120.494 E14.0056
G1 X149.812 Y120.376 E14.01505
G1 X149.485 Y120.186 E14.02448
G1 X149.204 Y119.931 E14.03395
G1 X148.984 Y119.622 E14.04341
G1 X148.832 Y119.275 E14.05286
G1 X148.749 Y118.734 E14.06651
G1 X148.749 Y98.735 E14.56539
G1 X148.789 Y98.358 E14.57485
G1 X148.907 Y97.998 E14.5843
G1 X149.097 Y97.671 E14.59373
G1 X149.352 Y97.39 E14.6032
G1 F2100 E13.8032
G0 F3600 X150.549 Y97.335
G1 F2100 E14.6032
G1 F1800 X170.549 Y97.335 E15.1021
G1 X170.881 Y97.375 E15.11044
G1 X171.193 Y97.492 E15.11875
G1 X171.47 Y97.68 E15.12711
G1 X171.693 Y97.928 E15.13543
G1 X171.852 Y98.222 E15.14376
G1 X171.936 Y98.546 E15.15211
G1 X171.949 Y98.735 E15.15684
G1 X171.949 Y118.734 E15.65572
G1 X171.909 Y119.066 E15.66406
G1 X171.792 Y119.378 E15.67237
G1 X171.604 Y119.655 E15.68072
G1 X171.356 Y119.878 E15.68904
G1 X171.062 Y120.037 E15.69738
G1 X170.738 Y120.121 E15.70573
G1 X170.549 Y120.134 E15.71045
G1 X150.549 Y120.134 E16.20935
G1 X150.217 Y120.094 E16.2177
G1 X149.905 Y119.977 E16.22601
G1 X149.628 Y119.789 E16.23436
G1 X149.405 Y119.541 E16.24268
G1 X149.246 Y119.247 E16.25102
G1 X149.162 Y118.923 E16.25937
G1 X149.149 Y118.734 E16.26409
G1 X149.149 Y98.735 E16.76297
G1 X149.189 Y98.403 E16.77131
G1 X149.306 Y98.091 E16.77962
G1 X149.494 Y97.814 E16.78797
G1 X149.742 Y97.591 E16.79629
G1 X150.036 Y97.432 E16.80463
G1 X150.36 Y97.348 E16.81298
G1 X150.549 Y97.335 E16.81771
G0 F3600 X150.549 Y97.735
G1 F1800 X170.549 Y97.735 E17.31661
G1 X170.828 Y97.775 E17.32364
G1 X171.085 Y97.891 E17.33067
G1 X171.3 Y98.074 E17.33772
G1 X171.454 Y98.31 E17.34474
G1 X171.537 Y98.58 E17.35179
G1 X171.549 Y98.735 E17.35567
G1 X171.549 Y118.734 E17.85455
G1 X171.509 Y119.013 E17.86158
G1 X171.393 Y119.27 E17.86861
G1 X171.21 Y119.485 E17.87565
G1 X170.974 Y119.639 E17.88268
G1 X170.704 Y119.722 E17.88973
G1 X170.549 Y119.734 E17.89361
G1 X150.549 Y119.734 E18.39251
G1 X150.27 Y119.694 E18.39954
G1 X150.013 Y119.578 E18.40657
G1 X149.798 Y119.395 E18.41362
G1 X149.644 Y119.159 E18.42065
G1 X149.561 Y118.889 E18.42769
G1 X149.549 Y118.734 E18.43157
G1 X149.549 Y98.735 E18.93045
G1 X149.589 Y98.456 E18.93748
G1 X149.705 Y98.199 E18.94451
G1 X149.888 Y97.984 E18.95156
G1 X150.124 Y97.83 E18.95858
G1 X150.394 Y97.747 E18.96563
G1 X150.549 Y97.735 E18.96951
G0 F3600 X150.549 Y98.135
G1 F1800 X170.549 Y98.135 E19.46841
G1 X170.764 Y98.175 E19.47387
G1 X170.95 Y98.288 E19.4793
G1 X171.083 Y98.461 E19.48474
G1 X171.149 Y98.735 E19.49177
G1 X171.149 Y118.734 E19.99065
G1 X171.109 Y118.949 E19.9961
G1 X170.996 Y119.135 E20.00153
G1 X170.823 Y119.268 E20.00697
G1 X170.549 Y119.334 E20.014
G1 X150.549 Y119.334 E20.51291
G1 X150.334 Y119.294 E20.51836
G1 X150.148 Y119.181 E20.52379
G1 X150.015 Y119.008 E20.52923
G1 X149.949 Y118.734 E20.53626
G1 X149.949 Y98.735 E21.03514
G1 X149.989 Y98.52 E21.0406
G1 X150.102 Y98.334 E21.04603
G1 X150.275 Y98.201 E21.05147
G1 X150.549 Y98.135 E21.0585
G0 F3600 X150.349 Y98.735
G1 F1800 X150.388 Y98.616 E21.06162
G1 X150.549 Y98.535 E21.06612
G1 X170.549 Y98.535 E21.56502
G1 X170.668 Y98.574 E21.56814
G1 X170.749 Y98.735 E21.57264
G1 X170.749 Y118.734 E22.07152
G1 X170.71 Y118.853 E22.07464
G1 X170.549 Y118.934 E22.07914
G1 X150.549 Y118.934 E22.57804
G1 X150.43 Y118.895 E22.58116
G1 X150.349 Y118.734 E22.58566
G1 X150.349 Y98.735 E23.08454
G1 F2100 E22.28454
G0 F3600 X149.884 Y98.735
G0 X145.624 Y99.568
G1 F2100 E23.08454
G1 F1800 X145.651 Y100.021 E23.09586
G1 X145.651 Y120.02 E23.59473
G1 X145.611 Y120.57 E23.60849
G1 X145.492 Y121.108 E23.62223
G1 X145.296 Y121.623 E23.63598
G1 X145.028 Y122.104 E23.64972
G1 X144.694 Y122.542 E23.66346
G1 X144.299 Y122.926 E23.6772
G1 X143.853 Y123.25 E23.69095
G1 X143.365 Y123.505 E23.70468
G1 X142.845 Y123.688 E23.71844
G1 X142.304 Y123.793 E23.73218
G1 X141.851 Y123.82 E23.7435
G1 X121.852 Y123.82 E24.24238
G1 X121.302 Y123.78 E24.25614
G1 X120.764 Y123.661 E24.26988
G1 X120.249 Y123.465 E24.28363
G1 X119.768 Y123.197 E24.29736
G1 X119.33 Y122.863 E24.3111
G1 X118.946 Y122.468 E24.32484
G1 X118.622 Y122.022 E24.33859
G1 X118.367 Y121.534 E24.35233
G1 X118.184 Y121.014 E24.36608
G1 X118.079 Y120.473 E24.37983
G1 X118.052 Y120.02 E24.39115
G1 X118.052 Y100.021 E24.89003
G1 X118.092 Y99.471 E24.90378
G1 X118.211 Y98.933 E24.91753
G1 X118.407 Y98.418 E24.93127
G1 X118.675 Y97.937 E24.94501
G1 X119.009 Y97.499 E24.95875
G1 X119.404 Y97.115 E24.97249
G1 X119.85 Y96.791 E24.98624
G1 X120.338 Y96.536 E24.99998
G1 X120.858 Y96.353 E25.01373
G1 X121.399 Y96.248 E25.02747
G1 X121.852 Y96.221 E25.03879
G1 X141.851 Y96.221 E25.53767
G1 X142.401 Y96.261 E25.55143
G1 X142.939 Y96.38 E25.56517
G1 X143.454 Y96.576 E25.57892
G1 X143.935 Y96.844 E25.59265
G1 X144.373 Y97.178 E25.60639
G1 X144.757 Y97.573 E25.62014
G1 X145.081 Y98.019 E25.63389
G1 X145.336 Y98.507 E25.64762
G1 X145.519 Y99.027 E25.66137
G1 X145.624 Y99.568 E25.67512
G0 F3600 X145.251 Y100.021
G1 F1800 X145.251 Y120.02 E26.174
G1 X145.211 Y120.54 E26.18701
G1 X145.092 Y121.047 E26.2
G1 X144.897 Y121.53 E26.21299
G1 X144.631 Y121.978 E26.22599
G1 X144.299 Y122.38 E26.23899
G1 X143.909 Y122.726 E26.252
G1 X143.471 Y123.009 E26.26501
G1 X142.996 Y123.222 E26.27799
G1 X142.493 Y123.359 E26.291
G1 X141.851 Y123.42 E26.30708
G1 X121.852 Y123.42 E26.80596
G1 X121.332 Y123.38 E26.81897
G1 X120.825 Y123.261 E26.83196
G1 X120.342 Y123.066 E26.84496
G1 X119.894 Y122.8 E26.85795
G1 X119.492 Y122.468 E26.87096
G1 X119.146 Y122.078 E26.88396
G1 X118.863 Y121.64 E26.89697
G1 X118.65 Y121.165 E26.90996
G1 X118.513 Y120.662 E26.92296
G1 X118.452 Y120.02 E26.93905
G1 X118.452 Y100.021 E27.43793
G1 X118.492 Y99.501 E27.45094
G1 X118.611 Y98.994 E27.46393
G1 X118.806 Y98.511 E27.47692
G1 X119.072 Y98.063 E27.48992
G1 X119.404 Y97.661 E27.50292
G1 X119.794 Y97.315 E27.51593
G1 X120.232 Y97.032 E27.52894
G1 X120.707 Y96.819 E27.54192
G1 X121.21 Y96.682 E27.55493
G1 X121.852 Y96.621 E27.57101
G1 X141.851 Y96.621 E28.06989
G1 X142.371 Y96.661 E28.0829
G1 X142.878 Y96.78 E28.09589
G1 X143.361 Y96.975 E28.10888
G1 X143.809 Y97.241 E28.12188
G1 X144.211 Y97.573 E28.13489
G1 X144.557 Y97.963 E28.14789
G1 X144.84 Y98.401 E28.1609
G1 X145.053 Y98.876 E28.17389
G1 X145.19 Y99.379 E28.18689
G1 X145.251 Y100.021 E28.20298
G0 F3600 X144.851 Y100.021
G1 F1800 X144.851 Y120.02 E28.70185
G1 X144.811 Y120.508 E28.71407
G1 X144.692 Y120.983 E28.72628
G1 X144.498 Y121.432 E28.73848
G1 X144.233 Y121.844 E28.7507
G1 X143.905 Y122.207 E28.76291
G1 X143.522 Y122.512 E28.77512
G1 X143.094 Y122.75 E28.78734
G1 X142.634 Y122.916 E28.79954
G1 X142.153 Y123.005 E28.81174
G1 X141.851 Y123.02 E28.81928
G1 X121.852 Y123.02 E29.31816
G1 X121.364 Y122.98 E29.33037
G1 X120.889 Y122.861 E29.34259
G1 X120.44 Y122.667 E29.35479
G1 X120.028 Y122.402 E29.36701
G1 X119.665 Y122.074 E29.37921
G1 X119.36 Y121.691 E29.39143
G1 X119.122 Y121.263 E29.40364
G1 X118.956 Y120.803 E29.41584
G1 X118.867 Y120.322 E29.42804
G1 X118.852 Y120.02 E29.43559
G1 X118.852 Y100.021 E29.93446
G1 X118.892 Y99.533 E29.94668
G1 X119.011 Y99.058 E29.95889
G1 X119.205 Y98.609 E29.97109
G1 X119.47 Y98.197 E29.98331
G1 X119.798 Y97.834 E29.99552
G1 X120.181 Y97.529 E30.00773
G1 X120.609 Y97.291 E30.01995
G1 X121.069 Y97.125 E30.03215
G1 X121.55 Y97.036 E30.04435
G1 X121.852 Y97.021 E30.05189
G1 X141.851 Y97.021 E30.55077
G1 X142.339 Y97.061 E30.56298
G1 X142.814 Y97.18 E30.5752
G1 X143.263 Y97.374 E30.5874
G1 X143.675 Y97.639 E30.59962
G1 X144.038 Y97.967 E30.61182
G1 X144.343 Y98.35 E30.62404
G1 X144.581 Y98.778 E30.63625
G1 X144.747 Y99.238 E30.64845
G1 X144.836 Y99.719 E30.66065
G1 X144.851 Y100.021 E30.6682
G0 F3600 X144.451 Y100.021
G1 F1800 X144.451 Y120.02 E31.16707
G1 X144.411 Y120.474 E31.17844
G1 X144.293 Y120.914 E31.18981
G1 X144.099 Y121.326 E31.20117
G1 X143.836 Y121.699 E31.21255
G1 X143.513 Y122.02 E31.22391
G1 X143.138 Y122.279 E31.23528
G1 X142.724 Y122.469 E31.24664
G1 X142.283 Y122.584 E31.25801
G1 X141.851 Y122.62 E31.26882
G1 X121.852 Y122.62 E31.7677
G1 X121.398 Y122.58 E31.77907
G1 X120.958 Y122.462 E31.79043
G1 X120.546 Y122.268 E31.80179
G1 X120.173 Y122.005 E31.81318
G1 X119.852 Y121.682 E31.82454
G1 X119.593 Y121.307 E31.83591
G1 X119.403 Y120.893 E31.84727
G1 X119.288 Y120.452 E31.85864
G1 X119.252 Y120.02 E31.86945
G1 X119.252 Y100.021 E32.36833
G1 X119.292 Y99.567 E32.3797
G1 X119.41 Y99.127 E32.39106
G1 X119.604 Y98.715 E32.40242
