;FLAVOR:RepRap
;TIME:1027
;Generated with Cura_SteamEngine 2.3.1
G21 ; set units to millimeters
G90 ; use absolute positioning
M82 ; absolute extrusion mode
G28 W ; home all without mesh bed level
G80 ; mesh bed leveling
M104 S200 ; set extruder temp
M140 S60 ; set bed temp
M190 S60 ; wait for bed temp
M109 S200 ; wait for extruder temp
G92 E0.0 ; reset extruder distance position
G1 Y-3.0 F1000.0 ; go outside print area
G1 X60.0 E9.0 F1000.0 ; intro line
G1 X100.0 E21.5 F1000.0 ; intro line
G92 E0.0 ; reset extruder distance position
;LAYER_COUNT:133
;LAYER:0
M107
G1 F2100 E-0.8
G0 F3600 X87.365 Y87.007 Z.15
;TYPE:SKIRT
G1 F2100 E0
G1 F1800 X87.815 Y86.665 E0.0141
G1 X88.308 Y86.389 E0.02819
G1 X88.836 Y86.185 E0.04231
G1 X89.386 Y86.058 E0.05639
G1 X90.009 Y86.009 E0.07198
G1 X109.991 Y86.01 E0.57044
G1 X110.555 Y86.05 E0.58454
G1 X111.108 Y86.169 E0.59865
G1 X111.638 Y86.365 E0.61275
G1 X112.136 Y86.633 E0.62685
G1 X112.59 Y86.97 E0.64096
G1 X112.993 Y87.366 E0.65505
G1 X113.336 Y87.816 E0.66917
G1 X113.611 Y88.309 E0.68325
G1 X113.815 Y88.837 E0.69737
G1 X113.942 Y89.388 E0.71147
G1 X113.991 Y90.01 E0.72704
G1 X113.991 Y109.991 E1.22547
G1 X113.951 Y110.555 E1.23957
G1 X113.832 Y111.108 E1.25368
G1 X113.636 Y111.638 E1.26778
G1 X113.368 Y112.135 E1.28186
G1 X113.032 Y112.59 E1.29597
G1 X112.635 Y112.993 E1.31008
G1 X112.185 Y113.335 E1.32418
G1 X111.692 Y113.611 E1.33828
G1 X111.164 Y113.815 E1.3524
G1 X110.614 Y113.942 E1.36648
G1 X109.991 Y113.991 E1.38206
G1 X90.009 Y113.991 E1.88052
G1 X89.445 Y113.951 E1.89462
G1 X88.892 Y113.832 E1.90873
G1 X88.362 Y113.636 E1.92283
G1 X87.865 Y113.368 E1.93691
G1 X87.41 Y113.032 E1.95102
G1 X87.007 Y112.635 E1.96513
G1 X86.665 Y112.185 E1.97923
G1 X86.389 Y111.692 E1.99333
G1 X86.185 Y111.164 E2.00745
G1 X86.058 Y110.614 E2.02153
G1 X86.009 Y109.991 E2.03712
G1 X86.009 Y90.009 E2.53557
G1 X86.049 Y89.445 E2.54967
G1 X86.168 Y88.892 E2.56379
G1 X86.364 Y88.362 E2.57788
G1 X86.632 Y87.865 E2.59197
G1 X86.968 Y87.41 E2.60608
G1 X87.365 Y87.007 E2.62019
G0 F3600 X87.756 Y87.201
G1 F1800 X88.198 Y86.898 E2.63356
G1 X88.681 Y86.663 E2.64695
G1 X89.192 Y86.503 E2.66031
G1 X89.722 Y86.42 E2.67369
G1 X90.009 Y86.409 E2.68086
G1 X109.991 Y86.41 E3.17931
G1 X110.526 Y86.45 E3.19269
G1 X111.049 Y86.569 E3.20607
G1 X111.548 Y86.764 E3.21944
G1 X112.013 Y87.032 E3.23283
G1 X112.433 Y87.365 E3.2462
G1 X112.799 Y87.757 E3.25957
G1 X113.103 Y88.199 E3.27296
G1 X113.337 Y88.682 E3.28634
G1 X113.497 Y89.194 E3.29973
G1 X113.58 Y89.723 E3.31308
G1 X113.591 Y90.01 E3.32025
G1 X113.591 Y109.991 E3.81868
G1 X113.551 Y110.526 E3.83206
G1 X113.432 Y111.049 E3.84544
G1 X113.237 Y111.548 E3.8588
G1 X112.969 Y112.013 E3.87219
G1 X112.636 Y112.433 E3.88556
G1 X112.244 Y112.799 E3.89894
G1 X111.802 Y113.102 E3.91231
G1 X111.319 Y113.337 E3.92571
G1 X110.808 Y113.497 E3.93906
G1 X110.278 Y113.58 E3.95244
G1 X109.991 Y113.591 E3.95961
G1 X90.009 Y113.591 E4.45806
G1 X89.474 Y113.551 E4.47144
G1 X88.951 Y113.432 E4.48482
G1 X88.452 Y113.237 E4.49819
G1 X87.987 Y112.969 E4.51158
G1 X87.567 Y112.636 E4.52495
G1 X87.201 Y112.244 E4.53833
G1 X86.898 Y111.802 E4.55169
G1 X86.663 Y111.319 E4.56509
G1 X86.503 Y110.808 E4.57845
G1 X86.42 Y110.278 E4.59183
G1 X86.409 Y109.991 E4.599
G1 X86.409 Y90.009 E5.09745
G1 X86.449 Y89.474 E5.11083
G1 X86.568 Y88.951 E5.12421
G1 X86.763 Y88.452 E5.13758
G1 X87.031 Y87.987 E5.15096
G1 X87.364 Y87.567 E5.16433
G1 X87.756 Y87.201 E5.17771
G0 F3600 X88.145 Y87.408
G1 F1800 X88.578 Y87.147 E5.19032
G1 X89.046 Y86.957 E5.20292
G1 X89.539 Y86.844 E5.21554
G1 X90.009 Y86.809 E5.2273
G1 X109.991 Y86.81 E5.72575
G1 X110.495 Y86.85 E5.73836
G1 X110.987 Y86.969 E5.75099
G1 X111.453 Y87.164 E5.76359
G1 X111.883 Y87.429 E5.77619
G1 X112.266 Y87.76 E5.78882
G1 X112.592 Y88.146 E5.80142
G1 X112.853 Y88.579 E5.81403
G1 X113.043 Y89.048 E5.82666
G1 X113.156 Y89.54 E5.83925
G1 X113.191 Y90.01 E5.851
G1 X113.191 Y109.991 E6.34943
G1 X113.151 Y110.495 E6.36204
G1 X113.032 Y110.986 E6.37465
G1 X112.838 Y111.453 E6.38726
G1 X112.572 Y111.883 E6.39987
G1 X112.242 Y112.266 E6.41249
G1 X111.855 Y112.592 E6.42511
G1 X111.422 Y112.853 E6.43772
G1 X110.954 Y113.043 E6.45032
G1 X110.461 Y113.156 E6.46294
G1 X109.991 Y113.191 E6.47469
G1 X90.009 Y113.191 E6.97315
G1 X89.505 Y113.151 E6.98576
G1 X89.014 Y113.032 E6.99836
G1 X88.547 Y112.838 E7.01098
G1 X88.117 Y112.572 E7.02359
G1 X87.734 Y112.242 E7.0362
G1 X87.408 Y111.855 E7.04882
G1 X87.147 Y111.422 E7.06143
G1 X86.957 Y110.954 E7.07403
G1 X86.844 Y110.461 E7.08665
G1 X86.809 Y109.991 E7.09841
G1 X86.809 Y90.009 E7.59686
G1 X86.849 Y89.505 E7.60947
G1 X86.968 Y89.014 E7.62207
G1 X87.162 Y88.547 E7.63469
G1 X87.428 Y88.117 E7.6473
G1 X87.758 Y87.734 E7.65991
G1 X88.145 Y87.408 E7.67254
G1 F2100 E6.87254
G0 F3600 X90.228 Y89.335
G0 X90.228 Y90.228
G0 X90.27 Y90.27
G0 X90.2 Y90.2
;TYPE:WALL-OUTER
G1 F2100 E7.67254
G1 F1800 X109.8 Y90.2 E8.16146
G1 X109.8 Y109.8 E8.65038
G1 X90.2 Y109.8 E9.13931
G1 X90.2 Y90.2 E9.62823
G0 F3600 X90.379 Y90.379
;TYPE:SKIN
G1 F1800 X109.619 Y109.619 E10.30697
G0 X109.689 Y109.689
G0 F3600 X109.619 Y109.054
G1 F1800 X90.945 Y90.38 E10.96575
G0 X90.875 Y90.31
G0 F3600 X91.511 Y90.38
G1 F1800 X109.619 Y108.488 E11.60456
G0 X109.689 Y108.558
G0 F3600 X109.619 Y107.922
G1 F1800 X92.077 Y90.38 E12.2234
G0 X92.007 Y90.31
G0 F3600 X92.643 Y90.38
G1 F1800 X109.619 Y107.357 E12.82229
G0 X109.689 Y107.427
G0 F3600 X109.619 Y106.791
G1 F1800 X93.208 Y90.38 E13.40123
G0 X93.138 Y90.31
G0 F3600 X93.774 Y90.38
G1 F1800 X109.619 Y106.225 E13.96021
G0 X109.689 Y106.295
G0 F3600 X109.619 Y105.66
G1 F1800 X94.34 Y90.38 E14.49923
G0 X94.27 Y90.31
G0 F3600 X94.905 Y90.38
G1 F1800 X109.619 Y105.094 E15.01831
G0 X109.689 Y105.164
G0 F3600 X109.619 Y104.528
G1 F1800 X95.471 Y90.38 E15.51742
G0 X95.401 Y90.31
G0 F3600 X96.037 Y90.38
G1 F1800 X109.619 Y103.963 E15.99658
G0 X109.689 Y104.033
G0 F3600 X109.619 Y103.397
G1 F1800 X96.602 Y90.38 E16.45579
G0 X96.532 Y90.31
G0 F3600 X97.168 Y90.38
G1 F1800 X109.619 Y102.831 E16.89503
G0 X109.689 Y102.901
G0 F3600 X109.619 Y102.266
G1 F1800 X97.734 Y90.38 E17.31432
G0 X97.664 Y90.31
G0 F3600 X98.299 Y90.38
G1 F1800 X109.619 Y101.7 E17.71367
G0 X109.689 Y101.77
G0 F3600 X109.619 Y101.134
G1 F1800 X98.865 Y90.38 E18.09304
G0 X98.795 Y90.31
G0 F3600 X99.431 Y90.38
G1 F1800 X109.619 Y100.568 E18.45245
G0 X109.689 Y100.638
G0 F3600 X109.619 Y100.003
G1 F1800 X99.996 Y90.38 E18.79193
G0 X99.926 Y90.31
G0 F3600 X100.562 Y90.38
G1 F1800 X109.619 Y99.437 E19.11144
G0 X109.689 Y99.507
G0 F3600 X109.619 Y98.871
G1 F1800 X101.128 Y90.38 E19.41098
G0 X101.058 Y90.31
G0 F3600 X101.693 Y90.38
G1 F1800 X109.619 Y98.306 E19.6906
G0 X109.689 Y98.376
G0 F3600 X109.619 Y97.74
G1 F1800 X102.259 Y90.38 E19.95024
G0 X102.189 Y90.31
G0 F3600 X102.825 Y90.38
G1 F1800 X109.619 Y97.174 E20.18992
G0 X109.689 Y97.244
G0 F3600 X109.619 Y96.609
G1 F1800 X103.391 Y90.38 E20.40964
G0 X103.321 Y90.31
G0 F3600 X103.956 Y90.38
G1 F1800 X109.619 Y96.043 E20.60942
G0 X109.689 Y96.113
G0 F3600 X109.619 Y95.477
G1 F1800 X104.522 Y90.38 E20.78923
G0 X104.452 Y90.31
G0 F3600 X105.088 Y90.38
G1 F1800 X109.619 Y94.912 E20.94909
G0 X109.689 Y94.982
G0 F3600 X109.619 Y94.346
G1 F1800 X105.653 Y90.38 E21.089
G0 X105.583 Y90.31
G0 F3600 X106.219 Y90.38
G1 F1800 X109.619 Y93.78 E21.20895
G0 X109.689 Y93.85
G0 F3600 X109.619 Y93.215
G1 F1800 X106.785 Y90.38 E21.30894
G0 X106.715 Y90.31
G0 F3600 X107.35 Y90.38
G1 F1800 X109.619 Y92.649 E21.38899
G0 X109.689 Y92.719
G0 F3600 X109.619 Y92.083
G1 F1800 X107.916 Y90.38 E21.44907
G0 X107.846 Y90.31
G0 F3600 X108.482 Y90.38
G1 F1800 X109.619 Y91.518 E21.48919
G0 X109.689 Y91.588
G0 F3600 X109.619 Y90.952
G1 F1800 X109.047 Y90.38 E21.50937
G0 X108.977 Y90.31
G0 F3600 X90.379 Y90.945
G1 F1800 X109.053 Y109.619 E22.16815
G0 X109.123 Y109.689
G0 F3600 X108.487 Y109.619
G1 F1800 X90.379 Y91.51 E22.80697
G0 X90.309 Y91.44
G0 F3600 X90.379 Y92.076
G1 F1800 X107.922 Y109.619 E23.42585
G0 X107.992 Y109.689
G0 F3600 X107.356 Y109.619
G1 F1800 X90.379 Y92.642 E24.02476
G0 X90.309 Y92.572
G0 F3600 X90.379 Y93.207
G1 F1800 X106.79 Y109.619 E24.60372
G0 X106.86 Y109.689
G0 F3600 X106.225 Y109.619
G1 F1800 X90.379 Y93.773 E25.16273
G0 X90.309 Y93.703
G0 F3600 X90.379 Y94.339
G1 F1800 X105.659 Y109.619 E25.70177
G0 X105.729 Y109.689
G0 F3600 X105.093 Y109.619
G1 F1800 X90.379 Y94.905 E26.22085
G0 X90.309 Y94.835
G0 F3600 X90.379 Y95.47
G1 F1800 X104.528 Y109.619 E26.71999
G0 X104.598 Y109.689
G0 F3600 X103.962 Y109.619
G1 F1800 X90.379 Y96.036 E27.19917
G0 X90.309 Y95.966
G0 F3600 X90.379 Y96.602
G1 F1800 X103.396 Y109.619 E27.65838
G0 X103.466 Y109.689
G0 F3600 X102.831 Y109.619
G1 F1800 X90.379 Y97.167 E28.09766
G0 X90.309 Y97.097
G0 F3600 X90.379 Y97.733
G1 F1800 X102.265 Y109.619 E28.51697
G0 X102.335 Y109.689
G0 F3600 X101.699 Y109.619
G1 F1800 X90.379 Y98.299 E28.91631
G0 X90.309 Y98.229
G0 F3600 X90.379 Y98.864
G1 F1800 X101.133 Y109.619 E29.29571
G0 X101.203 Y109.689
G0 F3600 X100.568 Y109.619
G1 F1800 X90.379 Y99.43 E29.65515
G0 X90.309 Y99.36
G0 F3600 X90.379 Y99.996
G1 F1800 X100.002 Y109.619 E29.99463
G0 X100.072 Y109.689
G0 F3600 X99.436 Y109.619
G1 F1800 X90.379 Y100.561 E30.31416
G0 X90.309 Y100.491
G0 F3600 X90.379 Y101.127
G1 F1800 X98.871 Y109.619 E30.61374
G0 X98.941 Y109.689
G0 F3600 X98.305 Y109.619
G1 F1800 X90.379 Y101.693 E30.89335
G0 X90.309 Y101.623
G0 F3600 X90.379 Y102.258
G1 F1800 X97.739 Y109.619 E31.15301
G0 X97.809 Y109.689
G0 F3600 X97.174 Y109.619
G1 F1800 X90.379 Y102.824 E31.39272
G0 X90.309 Y102.754
G0 F3600 X90.379 Y103.39
G1 F1800 X96.608 Y109.619 E31.61247
G0 X96.678 Y109.689
G0 F3600 X96.042 Y109.619
G1 F1800 X90.379 Y103.956 E31.81224
G0 X90.309 Y103.886
G0 F3600 X90.379 Y104.521
G1 F1800 X95.477 Y109.619 E31.99209
G0 X95.547 Y109.689
G0 F3600 X94.911 Y109.619
G1 F1800 X90.379 Y105.087 E32.15197
G0 X90.309 Y105.017
G0 F3600 X90.379 Y105.653
G1 F1800 X94.345 Y109.619 E32.29188
G0 X94.415 Y109.689
G0 F3600 X93.78 Y109.619
G1 F1800 X90.379 Y106.218 E32.41186
G0 X90.309 Y106.148
G0 F3600 X90.379 Y106.784
G1 F1800 X93.214 Y109.619 E32.51187
G0 X93.284 Y109.689
G0 F3600 X92.648 Y109.619
G1 F1800 X90.379 Y107.35 E32.59192
G0 X90.309 Y107.28
G0 F3600 X90.379 Y107.915
G1 F1800 X92.082 Y109.619 E32.65201
G0 X92.152 Y109.689
G0 F3600 X91.517 Y109.619
G1 F1800 X90.379 Y108.481 E32.69216
G0 X90.309 Y108.411
G0 F3600 X90.379 Y109.047
G1 F1800 X90.951 Y109.619 E32.71234
G0 X91.021 Y109.689
G0 F3600 X91.021 Y109.4
;TIME_ELAPSED:52.317980
;LAYER:1
G0 F5400 X91.021 Y109.4 Z.3
G0 X90.27 Y109.73
G0 X90.2 Y109.8
;TYPE:WALL-OUTER
G1 F2700 X90.2 Y90.2 E33.20126
G1 X109.8 Y90.2 E33.69018
G1 X109.8 Y109.8 E34.17911
G1 X90.2 Y109.8 E34.66803
G0 F5400 X90.632 Y109.619
;TYPE:SKIN
G1 F1800 X109.619 Y90.633 E35.33783
G0 X109.689 Y90.563
G0 F5400 X109.307 Y90.379
G1 F1800 X90.38 Y109.306 E36.00553
G0 X90.31 Y109.376
G0 F5400 X90.38 Y108.741
G1 F1800 X108.741 Y90.379 E36.65328
G0 X108.811 Y90.309
G0 F5400 X108.176 Y90.379
G1 F1800 X90.38 Y108.175 E37.28109
G0 X90.31 Y108.245
G0 F5400 X90.38 Y107.609
G1 F1800 X107.61 Y90.379 E37.88892
G0 X107.68 Y90.309
G0 F5400 X107.044 Y90.379
G1 F1800 X90.38 Y107.043 E38.47679
G0 X90.31 Y107.113
G0 F5400 X90.38 Y106.478
G1 F1800 X106.478 Y90.379 E39.04471
G0 X106.548 Y90.309
G0 F5400 X105.913 Y90.379
G1 F1800 X90.38 Y105.912 E39.59268
G0 X90.31 Y105.982
G0 F5400 X90.38 Y105.346
G1 F1800 X105.347 Y90.379 E40.12068
G0 X105.417 Y90.309
G0 F5400 X104.781 Y90.379
G1 F1800 X90.38 Y104.781 E40.62873
G0 X90.31 Y104.851
G0 F5400 X90.38 Y104.215
G1 F1800 X104.216 Y90.379 E41.11683
G0 X104.286 Y90.309
G0 F5400 X103.65 Y90.379
G1 F1800 X90.38 Y103.649 E41.58497
G0 X90.31 Y103.719
G0 F5400 X90.38 Y103.084
G1 F1800 X103.084 Y90.379 E42.03315
G0 X103.154 Y90.309
G0 F5400 X102.519 Y90.379
G1 F1800 X90.38 Y102.518 E42.46139
G0 X90.31 Y102.588
G0 F5400 X90.38 Y101.952
G1 F1800 X101.953 Y90.379 E42.86966
G0 X102.023 Y90.309
G0 F5400 X101.387 Y90.379
G1 F1800 X90.38 Y101.387 E43.25798
G0 X90.31 Y101.457
G0 F5400 X90.38 Y100.821
G1 F1800 X100.822 Y90.379 E43.62634
G0 X100.892 Y90.309
G0 F5400 X100.256 Y90.379
G1 F1800 X90.38 Y100.255 E43.97475
G0 X90.31 Y100.325
G0 F5400 X90.38 Y99.69
G1 F1800 X99.69 Y90.379 E44.3032
G0 X99.76 Y90.309
G0 F5400 X99.125 Y90.379
G1 F1800 X90.38 Y99.124 E44.6117
G0 X90.31 Y99.194
G0 F5400 X90.38 Y98.558
G1 F1800 X98.559 Y90.379 E44.90024
G0 X98.629 Y90.309
G0 F5400 X97.993 Y90.379
G1 F1800 X90.38 Y97.992 E45.16881
G0 X90.31 Y98.062
G0 F5400 X90.38 Y97.427
G1 F1800 X97.428 Y90.379 E45.41745
G0 X97.498 Y90.309
G0 F5400 X96.862 Y90.379
G1 F1800 X90.38 Y96.861 E45.64612
G0 X90.31 Y96.931
G0 F5400 X90.38 Y96.295
G1 F1800 X96.296 Y90.379 E45.85482
G0 X96.366 Y90.309
G0 F5400 X95.73 Y90.379
G1 F1800 X90.38 Y95.73 E46.04357
G0 X90.31 Y95.8
G0 F5400 X90.38 Y95.164
G1 F1800 X95.165 Y90.379 E46.21238
G0 X95.235 Y90.309
G0 F5400 X94.599 Y90.379
G1 F1800 X90.38 Y94.598 E46.36121
G0 X90.31 Y94.668
G0 F5400 X90.38 Y94.033
G1 F1800 X94.033 Y90.379 E46.4901
G0 X94.103 Y90.309
G0 F5400 X93.468 Y90.379
G1 F1800 X90.38 Y93.467 E46.59904
G0 X90.31 Y93.537
G0 F5400 X90.38 Y92.901
G1 F1800 X92.902 Y90.379 E46.68801
G0 X92.972 Y90.309
G0 F5400 X92.336 Y90.379
G1 F1800 X90.38 Y92.336 E46.75703
G0 X90.31 Y92.406
G0 F5400 X90.38 Y91.77
G1 F1800 X91.771 Y90.379 E46.8061
G0 X91.841 Y90.309
G0 F5400 X91.205 Y90.379
G1 F1800 X90.38 Y91.204 E46.8352
G0 X90.31 Y91.274
G0 F5400 X90.38 Y90.639
G1 F1800 X90.639 Y90.379 E46.84436
G0 F5400 X109.619 Y91.199
G1 F1800 X91.198 Y109.619 E47.49419
G0 X91.128 Y109.689
G0 F5400 X91.764 Y109.619
G1 F1800 X109.619 Y91.764 E48.12408
G0 X109.689 Y91.694
G0 F5400 X109.619 Y92.33
G1 F1800 X92.329 Y109.619 E48.73401
G0 X92.259 Y109.689
G0 F5400 X92.895 Y109.619
G1 F1800 X109.619 Y92.896 E49.32398
G0 X109.689 Y92.826
G0 F5400 X109.619 Y93.461
G1 F1800 X93.461 Y109.619 E49.89399
G0 X93.391 Y109.689
G0 F5400 X94.026 Y109.619
G1 F1800 X109.619 Y94.027 E50.44406
G0 X109.689 Y93.957
G0 F5400 X109.619 Y94.593
G1 F1800 X94.592 Y109.619 E50.97416
G0 X94.522 Y109.689
G0 F5400 X95.158 Y109.619
G1 F1800 X109.619 Y95.158 E51.48431
G0 X109.689 Y95.088
G0 F5400 X109.619 Y95.724
G1 F1800 X95.723 Y109.619 E51.97451
G0 X95.653 Y109.689
G0 F5400 X96.289 Y109.619
G1 F1800 X109.619 Y96.29 E52.44475
G0 X109.689 Y96.22
G0 F5400 X109.619 Y96.855
G1 F1800 X96.855 Y109.619 E52.89503
G0 X96.785 Y109.689
G0 F5400 X97.42 Y109.619
G1 F1800 X109.619 Y97.421 E53.32537
G0 X109.689 Y97.351
G0 F5400 X109.619 Y97.987
G1 F1800 X97.986 Y109.619 E53.73573
G0 X97.916 Y109.689
G0 F5400 X98.552 Y109.619
G1 F1800 X109.619 Y98.553 E54.12614
G0 X109.689 Y98.483
G0 F5400 X109.619 Y99.118
G1 F1800 X99.117 Y109.619 E54.4966
G0 X99.047 Y109.689
G0 F5400 X99.683 Y109.619
G1 F1800 X109.619 Y99.684 E54.84711
G0 X109.689 Y99.614
G0 F5400 X109.619 Y100.25
G1 F1800 X100.249 Y109.619 E55.17764
G0 X100.179 Y109.689
G0 F5400 X100.815 Y109.619
G1 F1800 X109.619 Y100.815 E55.48822
G0 X109.689 Y100.745
G0 F5400 X109.619 Y101.381
G1 F1800 X101.38 Y109.619 E55.77886
G0 X101.31 Y109.689
G0 F5400 X101.946 Y109.619
G1 F1800 X109.619 Y101.947 E56.04953
G0 X109.689 Y101.877
G0 F5400 X109.619 Y102.512
G1 F1800 X102.512 Y109.619 E56.30025
G0 X102.442 Y109.689
G0 F5400 X103.077 Y109.619
G1 F1800 X109.619 Y103.078 E56.53102
G0 X109.689 Y103.008
G0 F5400 X109.619 Y103.644
G1 F1800 X103.643 Y109.619 E56.74182
G0 X103.573 Y109.689
G0 F5400 X104.209 Y109.619
G1 F1800 X109.619 Y104.209 E56.93267
G0 X109.689 Y104.139
G0 F5400 X109.619 Y104.775
G1 F1800 X104.774 Y109.619 E57.10357
G0 X104.704 Y109.689
G0 F5400 X105.34 Y109.619
G1 F1800 X109.619 Y105.341 E57.25451
G0 X109.689 Y105.271
G0 F5400 X109.619 Y105.906
G1 F1800 X105.906 Y109.619 E57.38549
G0 X105.836 Y109.689
G0 F5400 X106.471 Y109.619
G1 F1800 X109.619 Y106.472 E57.49653
G0 X109.689 Y106.402
G0 F5400 X109.619 Y107.038
G1 F1800 X107.037 Y109.619 E57.5876
G0 X106.967 Y109.689
G0 F5400 X107.603 Y109.619
G1 F1800 X109.619 Y107.603 E57.65872
G0 X109.689 Y107.533
G0 F5400 X109.619 Y108.169
G1 F1800 X108.168 Y109.619 E57.70989
G0 X108.098 Y109.689
G0 F5400 X108.734 Y109.619
