;FLAVOR:RepRap
;TIME:730
;Generated with Cura_SteamEngine 2.3.1
G21 ; set units to millimeters
G90 ; use absolute positioning
M82 ; absolute extrusion mode
G28 W ; home all without mesh bed level
G80 ; mesh bed leveling
M104 S200 ; set extruder temp
M140 S60 ; set bed temp
M190 S60 ; wait for bed temp
M109 S200 ; wait for extruder temp
G92 E0.0 ; reset extruder distance position
G1 Y-3.0 F1000.0 ; go outside print area
G1 X60.0 E9.0 F1000.0 ; intro line
G1 X100.0 E21.5 F1000.0 ; intro line
G92 E0.0 ; reset extruder distance position
;LAYER_COUNT:118
;LAYER:0
M107
G1 F2100 E-0.8
G0 F3600 X115.742 Y89.741 Z.15
;TYPE:SKIRT
G1 F2100 E0
G1 F1800 X116.139 Y89.338 E0.01411
G1 X116.589 Y88.996 E0.02821
G1 X117.082 Y88.72 E0.0423
G1 X117.61 Y88.516 E0.05642
G1 X118.16 Y88.389 E0.07051
G1 X118.783 Y88.34 E0.08609
G1 X131.217 Y88.341 E0.39626
G1 X131.781 Y88.381 E0.41037
G1 X132.334 Y88.5 E0.42448
G1 X132.864 Y88.696 E0.43857
G1 X133.362 Y88.965 E0.45269
G1 X133.816 Y89.301 E0.46678
G1 X134.219 Y89.697 E0.48087
G1 X134.562 Y90.147 E0.49499
G1 X134.838 Y90.64 E0.50908
G1 X135.041 Y91.168 E0.52319
G1 X135.168 Y91.719 E0.5373
G1 X135.217 Y92.342 E0.55289
G1 X135.216 Y96.1 E0.64663
G1 X135.176 Y96.664 E0.66074
G1 X135.057 Y97.217 E0.67485
G1 X134.782 Y97.91 E0.69344
G1 X131.994 Y103.4 E0.84704
G1 X129.832 Y108.365 E0.98213
G1 X127.946 Y113.472 E1.11793
G1 X126.305 Y118.83 E1.25771
G1 X126.101 Y119.358 E1.27183
G1 X125.826 Y119.851 E1.28592
G1 X125.483 Y120.301 E1.30003
G1 X125.081 Y120.698 E1.31412
G1 X124.626 Y121.034 E1.32823
G1 X124.129 Y121.303 E1.34233
G1 X123.599 Y121.499 E1.35643
G1 X123.046 Y121.619 E1.37054
G1 X122.481 Y121.659 E1.38467
G1 X118.784 Y121.66 E1.47689
G1 X118.22 Y121.62 E1.491
G1 X117.667 Y121.501 E1.50511
G1 X117.137 Y121.306 E1.5192
G1 X116.64 Y121.037 E1.53329
G1 X116.185 Y120.701 E1.5474
G1 X115.782 Y120.305 E1.5615
G1 X115.439 Y119.855 E1.57561
G1 X115.163 Y119.362 E1.5897
G1 X114.959 Y118.834 E1.60382
G1 X114.832 Y118.284 E1.6179
G1 X114.783 Y117.66 E1.63352
G1 X114.783 Y92.34 E2.26513
G1 X114.823 Y91.776 E2.27923
G1 X114.942 Y91.223 E2.29334
G1 X115.138 Y90.693 E2.30744
G1 X115.406 Y90.196 E2.32152
G1 X115.742 Y89.741 E2.33563
G0 F3600 X116.138 Y89.898
G1 F1800 X116.53 Y89.532 E2.34901
G1 X116.972 Y89.229 E2.36238
G1 X117.455 Y88.994 E2.37578
G1 X117.966 Y88.834 E2.38914
G1 X118.496 Y88.751 E2.40252
G1 X118.783 Y88.74 E2.40968
G1 X131.217 Y88.741 E2.71985
G1 X131.752 Y88.781 E2.73323
G1 X132.275 Y88.9 E2.74661
G1 X132.774 Y89.095 E2.75998
G1 X133.239 Y89.363 E2.77336
G1 X133.659 Y89.696 E2.78674
G1 X134.025 Y90.088 E2.80011
G1 X134.329 Y90.53 E2.8135
G1 X134.563 Y91.013 E2.82688
G1 X134.723 Y91.525 E2.84026
G1 X134.806 Y92.055 E2.85365
G1 X134.817 Y92.342 E2.86081
G1 X134.816 Y96.1 E2.95455
G1 X134.776 Y96.635 E2.96794
G1 X134.657 Y97.158 E2.98132
G1 X134.426 Y97.729 E2.99668
G1 X131.632 Y103.231 E3.15061
G1 X129.458 Y108.223 E3.28643
G1 X127.563 Y113.353 E3.42286
G1 X125.922 Y118.713 E3.56269
G1 X125.727 Y119.213 E3.57607
G1 X125.461 Y119.678 E3.58944
G1 X125.128 Y120.098 E3.60281
G1 X124.736 Y120.465 E3.6162
G1 X124.294 Y120.769 E3.62958
G1 X123.812 Y121.004 E3.64296
G1 X123.3 Y121.164 E3.65634
G1 X122.771 Y121.247 E3.6697
G1 X122.481 Y121.259 E3.67694
G1 X118.784 Y121.26 E3.76916
G1 X118.249 Y121.22 E3.78254
G1 X117.726 Y121.101 E3.79592
G1 X117.227 Y120.906 E3.80929
G1 X116.762 Y120.639 E3.82266
G1 X116.342 Y120.306 E3.83603
G1 X115.976 Y119.914 E3.84941
G1 X115.672 Y119.472 E3.86279
G1 X115.437 Y118.989 E3.87619
G1 X115.277 Y118.478 E3.88955
G1 X115.195 Y117.948 E3.90293
G1 X115.183 Y117.66 E3.91012
G1 X115.183 Y92.34 E4.54173
G1 X115.223 Y91.805 E4.55511
G1 X115.342 Y91.282 E4.56849
G1 X115.537 Y90.783 E4.58186
G1 X115.805 Y90.318 E4.59524
G1 X116.138 Y89.898 E4.60861
G0 F3600 X116.532 Y90.065
G1 F1800 X116.919 Y89.739 E4.62124
G1 X117.352 Y89.478 E4.63385
G1 X117.82 Y89.288 E4.64645
G1 X118.313 Y89.175 E4.65907
G1 X118.783 Y89.14 E4.67082
G1 X131.217 Y89.141 E4.98099
G1 X131.721 Y89.181 E4.9936
G1 X132.213 Y89.3 E5.00623
G1 X132.679 Y89.495 E5.01883
G1 X133.109 Y89.76 E5.03143
G1 X133.492 Y90.091 E5.04406
G1 X133.818 Y90.477 E5.05666
G1 X134.079 Y90.91 E5.06927
G1 X134.269 Y91.379 E5.08189
G1 X134.382 Y91.871 E5.09449
G1 X134.417 Y92.342 E5.10627
G1 X134.416 Y96.1 E5.20001
G1 X134.376 Y96.604 E5.21262
G1 X134.257 Y97.095 E5.22523
G1 X134.069 Y97.548 E5.23746
G1 X131.269 Y103.062 E5.39173
G1 X129.092 Y108.061 E5.52774
G1 X127.185 Y113.224 E5.66504
G1 X125.54 Y118.596 E5.80518
G1 X125.354 Y119.066 E5.81779
G1 X125.096 Y119.501 E5.83041
G1 X124.774 Y119.89 E5.843
G1 X124.394 Y120.224 E5.85562
G1 X123.966 Y120.493 E5.86823
G1 X123.501 Y120.692 E5.88085
G1 X123.011 Y120.815 E5.89345
G1 X122.481 Y120.859 E5.90672
G1 X118.784 Y120.86 E5.99894
G1 X118.28 Y120.82 E6.01155
G1 X117.788 Y120.702 E6.02418
G1 X117.322 Y120.507 E6.03678
G1 X116.892 Y120.241 E6.04939
G1 X116.509 Y119.911 E6.062
G1 X116.183 Y119.525 E6.0746
G1 X115.921 Y119.092 E6.08723
G1 X115.731 Y118.623 E6.09985
G1 X115.618 Y118.131 E6.11244
G1 X115.583 Y117.66 E6.12423
G1 X115.583 Y92.34 E6.75584
G1 X115.623 Y91.836 E6.76845
G1 X115.742 Y91.345 E6.78105
G1 X115.936 Y90.878 E6.79366
G1 X116.202 Y90.448 E6.80628
G1 X116.532 Y90.065 E6.81889
G1 F2100 E6.01889
G0 F3600 X119.402 Y91.666
G0 X119.402 Y92.959
G0 X119.444 Y93.001
G0 X119.374 Y92.931
;TYPE:WALL-INNER
G1 F2100 E6.81889
G1 F1800 X130.626 Y92.931 E7.09957
G1 X130.626 Y95.503 E7.16373
G1 X121.889 Y95.503 E7.38167
G1 X121.889 Y117.069 E7.91964
G1 X119.374 Y117.069 E7.98238
G1 X119.374 Y92.931 E8.5845
G0 F3600 X119.444 Y93.001
G0 X122.289 Y95.403
G0 X122.289 Y95.903
;TYPE:WALL-OUTER
G1 F1800 X122.289 Y117.469 E9.12247
G1 X118.974 Y117.469 E9.20516
G1 X118.974 Y92.531 E9.82724
G1 X131.026 Y92.531 E10.12788
G1 X131.026 Y95.903 E10.212
G1 X122.289 Y95.903 E10.42994
G0 F3600 X122.475 Y95.322
;TYPE:SKIN
G1 F1800 X120.264 Y93.111 E10.50794
G0 X120.194 Y93.041
G0 F3600 X120.829 Y93.111
G1 F1800 X123.041 Y95.322 E10.58596
G0 X123.111 Y95.392
G0 F3600 X123.607 Y95.322
G1 F1800 X121.395 Y93.111 E10.66397
G0 X121.325 Y93.041
G0 F3600 X121.961 Y93.111
G1 F1800 X124.172 Y95.322 E10.74197
G0 X124.242 Y95.392
G0 F3600 X124.738 Y95.322
G1 F1800 X122.526 Y93.111 E10.81999
G0 X122.456 Y93.041
G0 F3600 X123.092 Y93.111
G1 F1800 X125.304 Y95.322 E10.89801
G0 X125.374 Y95.392
G0 F3600 X125.869 Y95.322
G1 F1800 X123.658 Y93.111 E10.976
G0 X123.588 Y93.041
G0 F3600 X124.223 Y93.111
G1 F1800 X126.435 Y95.322 E11.05402
G0 X126.505 Y95.392
G0 F3600 X127.001 Y95.322
G1 F1800 X124.789 Y93.111 E11.13204
G0 X124.719 Y93.041
G0 F3600 X125.355 Y93.111
G1 F1800 X127.567 Y95.322 E11.21005
G0 X127.637 Y95.392
G0 F3600 X128.132 Y95.322
G1 F1800 X125.92 Y93.111 E11.28807
G0 X125.85 Y93.041
G0 F3600 X126.486 Y93.111
G1 F1800 X128.698 Y95.322 E11.36609
G0 X128.768 Y95.392
G0 F3600 X129.264 Y95.322
G1 F1800 X127.052 Y93.111 E11.4441
G0 X126.982 Y93.041
G0 F3600 X127.617 Y93.111
G1 F1800 X129.829 Y95.322 E11.52212
G0 X129.899 Y95.392
G0 F3600 X130.395 Y95.322
G1 F1800 X128.183 Y93.111 E11.60014
G0 X128.113 Y93.041
G0 F3600 X128.749 Y93.111
G1 F1800 X130.444 Y94.806 E11.65993
G0 X130.514 Y94.876
G0 F3600 X130.444 Y94.241
G1 F1800 X129.314 Y93.111 E11.6998
G0 X129.244 Y93.041
G0 F3600 X129.88 Y93.111
G1 F1800 X130.444 Y93.675 E11.71969
G0 F3600 X121.91 Y95.322
G1 F1800 X119.698 Y93.111 E11.79771
G0 X119.628 Y93.041
G0 F3600 X119.553 Y93.531
G1 F1800 X121.708 Y95.687 E11.87375
G0 X121.778 Y95.757
G0 F3600 X121.708 Y96.252
G1 F1800 X119.553 Y94.097 E11.94978
G0 X119.483 Y94.027
G0 F3600 X119.553 Y94.663
G1 F1800 X121.708 Y96.818 E12.0258
G0 X121.778 Y96.888
G0 F3600 X121.708 Y97.384
G1 F1800 X119.553 Y95.228 E12.10184
G0 X119.483 Y95.158
G0 F3600 X119.553 Y95.794
G1 F1800 X121.708 Y97.949 E12.17786
G0 X121.778 Y98.019
G0 F3600 X121.708 Y98.515
G1 F1800 X119.553 Y96.36 E12.25389
G0 X119.483 Y96.29
G0 F3600 X119.553 Y96.925
G1 F1800 X121.708 Y99.081 E12.32993
G0 X121.778 Y99.151
G0 F3600 X121.708 Y99.646
G1 F1800 X119.553 Y97.491 E12.40595
G0 X119.483 Y97.421
G0 F3600 X119.553 Y98.057
G1 F1800 X121.708 Y100.212 E12.48197
G0 X121.778 Y100.282
G0 F3600 X121.708 Y100.778
G1 F1800 X119.553 Y98.623 E12.558
G0 X119.483 Y98.553
G0 F3600 X119.553 Y99.188
G1 F1800 X121.708 Y101.343 E12.63402
G0 X121.778 Y101.413
G0 F3600 X121.708 Y101.909
G1 F1800 X119.553 Y99.754 E12.71004
G0 X119.483 Y99.684
G0 F3600 X119.553 Y100.32
G1 F1800 X121.708 Y102.475 E12.78607
G0 X121.778 Y102.545
G0 F3600 X121.708 Y103.041
G1 F1800 X119.553 Y100.885 E12.86211
G0 X119.483 Y100.815
G0 F3600 X119.553 Y101.451
G1 F1800 X121.708 Y103.606 E12.93813
G0 X121.778 Y103.676
G0 F3600 X121.708 Y104.172
G1 F1800 X119.553 Y102.017 E13.01416
G0 X119.483 Y101.947
G0 F3600 X119.553 Y102.582
G1 F1800 X121.708 Y104.738 E13.0902
G0 X121.778 Y104.808
G0 F3600 X121.708 Y105.303
G1 F1800 X119.553 Y103.148 E13.16622
G0 X119.483 Y103.078
G0 F3600 X119.553 Y103.714
G1 F1800 X121.708 Y105.869 E13.24224
G0 X121.778 Y105.939
G0 F3600 X121.708 Y106.435
G1 F1800 X119.553 Y104.279 E13.31829
G0 X119.483 Y104.209
G0 F3600 X119.553 Y104.845
G1 F1800 X121.708 Y107 E13.39431
G0 X121.778 Y107.07
G0 F3600 X121.708 Y107.566
G1 F1800 X119.553 Y105.411 E13.47033
G0 X119.483 Y105.341
G0 F3600 X119.553 Y105.976
G1 F1800 X121.708 Y108.132 E13.54637
G0 X121.778 Y108.202
G0 F3600 X121.708 Y108.697
G1 F1800 X119.553 Y106.542 E13.6224
G0 X119.483 Y106.472
G0 F3600 X119.553 Y107.108
G1 F1800 X121.708 Y109.263 E13.69842
G0 X121.778 Y109.333
G0 F3600 X121.708 Y109.829
G1 F1800 X119.553 Y107.673 E13.77446
G0 X119.483 Y107.603
G0 F3600 X119.553 Y108.239
G1 F1800 X121.708 Y110.394 E13.85048
G0 X121.778 Y110.464
G0 F3600 X121.708 Y110.96
G1 F1800 X119.553 Y108.805 E13.92651
G0 X119.483 Y108.735
G0 F3600 X119.553 Y109.371
G1 F1800 X121.708 Y111.526 E14.00253
G0 X121.778 Y111.596
G0 F3600 X121.708 Y112.091
G1 F1800 X119.553 Y109.936 E14.07855
G0 X119.483 Y109.866
G0 F3600 X119.553 Y110.502
G1 F1800 X121.708 Y112.657 E14.15458
G0 X121.778 Y112.727
G0 F3600 X121.708 Y113.223
G1 F1800 X119.553 Y111.068 E14.2306
G0 X119.483 Y110.998
G0 F3600 X119.553 Y111.633
G1 F1800 X121.708 Y113.789 E14.30664
G0 X121.778 Y113.859
G0 F3600 X121.708 Y114.354
G1 F1800 X119.553 Y112.199 E14.38267
G0 X119.483 Y112.129
G0 F3600 X119.553 Y112.765
G1 F1800 X121.708 Y114.92 E14.45869
G0 X121.778 Y114.99
G0 F3600 X121.708 Y115.486
G1 F1800 X119.553 Y113.33 E14.53473
G0 X119.483 Y113.26
G0 F3600 X119.553 Y113.896
G1 F1800 X121.708 Y116.051 E14.61075
G0 X121.778 Y116.121
G0 F3600 X121.708 Y116.617
G1 F1800 X119.553 Y114.462 E14.68678
G0 X119.483 Y114.392
G0 F3600 X119.553 Y115.027
G1 F1800 X121.414 Y116.888 E14.75243
G0 X121.484 Y116.958
G0 F3600 X120.848 Y116.888
G1 F1800 X119.553 Y115.593 E14.79811
G0 X119.483 Y115.523
G0 F3600 X119.553 Y116.159
G1 F1800 X120.283 Y116.888 E14.82385
G0 X120.353 Y116.958
G0 F3600 X119.717 Y116.888
G1 F1800 X119.553 Y116.724 E14.82963
G0 F3600 X119.774 Y116.669
;TIME_ELAPSED:28.411192
;LAYER:1
M106 S255
G0 F5400 X119.374 Y117.069 Z.25
;TYPE:WALL-INNER
G1 F2700 X119.374 Y92.931 E15.23105
G1 X130.626 Y92.931 E15.41817
G1 X130.626 Y95.503 E15.46095
G1 X121.889 Y95.503 E15.60624
G1 X121.889 Y117.069 E15.96489
G1 X119.374 Y117.069 E16.00671
G0 F5400 X118.974 Y117.469
;TYPE:WALL-OUTER
G1 F1800 X118.974 Y92.531 E16.42143
G1 X131.026 Y92.531 E16.62186
G1 X131.026 Y95.903 E16.67793
G1 X122.289 Y95.903 E16.82323
G1 X122.289 Y117.469 E17.18187
G1 X118.974 Y117.469 E17.237
G0 F5400 X119.444 Y116.999
G0 X119.567 Y116.888
;TYPE:SKIN
G1 F1800 X121.707 Y114.748 E17.28733
G0 X121.777 Y114.678
G0 F5400 X121.707 Y114.182
G1 F1800 X119.553 Y116.337 E17.338
G0 X119.483 Y116.407
G0 F5400 X119.553 Y115.771
G1 F1800 X121.707 Y113.617 E17.38866
G0 X121.777 Y113.547
G0 F5400 X121.707 Y113.051
G1 F1800 X119.553 Y115.206 E17.43933
G0 X119.483 Y115.276
G0 F5400 X119.553 Y114.64
G1 F1800 X121.707 Y112.485 E17.49
G0 X121.777 Y112.415
G0 F5400 X121.707 Y111.92
G1 F1800 X119.553 Y114.074 E17.54066
G0 X119.483 Y114.144
G0 F5400 X119.553 Y113.509
G1 F1800 X121.707 Y111.354 E17.59133
G0 X121.777 Y111.284
G0 F5400 X121.707 Y110.788
G1 F1800 X119.553 Y112.943 E17.642
G0 X119.483 Y113.013
G0 F5400 X119.553 Y112.377
G1 F1800 X121.707 Y110.223 E17.69266
G0 X121.777 Y110.153
G0 F5400 X121.707 Y109.657
G1 F1800 X119.553 Y111.811 E17.74332
G0 X119.483 Y111.881
G0 F5400 X119.553 Y111.246
G1 F1800 X121.707 Y109.091 E17.79399
G0 X121.777 Y109.021
G0 F5400 X121.707 Y108.526
G1 F1800 X119.553 Y110.68 E17.84465
G0 X119.483 Y110.75
G0 F5400 X119.553 Y110.114
G1 F1800 X121.707 Y107.96 E17.89531
G0 X121.777 Y107.89
G0 F5400 X121.707 Y107.394
G1 F1800 X119.553 Y109.549 E17.94598
G0 X119.483 Y109.619
G0 F5400 X119.553 Y108.983
G1 F1800 X121.707 Y106.828 E17.99665
G0 X121.777 Y106.758
G0 F5400 X121.707 Y106.263
G1 F1800 X119.553 Y108.417 E18.04731
G0 X119.483 Y108.487
G0 F5400 X119.553 Y107.852
G1 F1800 X121.707 Y105.697 E18.09798
G0 X121.777 Y105.627
G0 F5400 X121.707 Y105.131
G1 F1800 X119.553 Y107.286 E18.14865
G0 X119.483 Y107.356
G0 F5400 X119.553 Y106.72
G1 F1800 X121.707 Y104.566 E18.19931
G0 X121.777 Y104.496
G0 F5400 X121.707 Y104
G1 F1800 X119.553 Y106.155 E18.24998
G0 X119.483 Y106.225
G0 F5400 X119.553 Y105.589
G1 F1800 X121.707 Y103.434 E18.30065
G0 X121.777 Y103.364
G0 F5400 X121.707 Y102.869
G1 F1800 X119.553 Y105.023 E18.35131
G0 X119.483 Y105.093
G0 F5400 X119.553 Y104.458
G1 F1800 X121.707 Y102.303 E18.40198
G0 X121.777 Y102.233
G0 F5400 X121.707 Y101.737
G1 F1800 X119.553 Y103.892 E18.45265
G0 X119.483 Y103.962
G0 F5400 X119.553 Y103.326
G1 F1800 X121.707 Y101.172 E18.50331
G0 X121.777 Y101.102
G0 F5400 X121.707 Y100.606
G1 F1800 X119.553 Y102.761 E18.55398
G0 X119.483 Y102.831
G0 F5400 X119.553 Y102.195
G1 F1800 X121.707 Y100.04 E18.60465
G0 X121.777 Y99.97
G0 F5400 X121.707 Y99.475
G1 F1800 X119.553 Y101.629 E18.65531
G0 X119.483 Y101.699
G0 F5400 X119.553 Y101.063
G1 F1800 X121.707 Y98.909 E18.70597
G0 X121.777 Y98.839
G0 F5400 X121.707 Y98.343
G1 F1800 X119.553 Y100.498 E18.75664
G0 X119.483 Y100.568
G0 F5400 X119.553 Y99.932
G1 F1800 X121.707 Y97.778 E18.8073
G0 X121.777 Y97.708
G0 F5400 X121.707 Y97.212
G1 F1800 X119.553 Y99.366 E18.85796
G0 X119.483 Y99.436
G0 F5400 X119.553 Y98.801
G1 F1800 X121.707 Y96.646 E18.90863
G0 X121.777 Y96.576
G0 F5400 X121.707 Y96.08
G1 F1800 X119.553 Y98.235 E18.9593
G0 X119.483 Y98.305
G0 F5400 X119.553 Y97.669
G1 F1800 X121.707 Y95.515 E19.00995
G0 X121.777 Y95.445
G0 F5400 X121.9 Y95.322
G1 F1800 X124.112 Y93.11 E19.06198
G0 X124.182 Y93.04
G0 F5400 X123.547 Y93.11
G1 F1800 X119.553 Y97.104 E19.15591
G0 X119.483 Y97.174
G0 F5400 X119.553 Y96.538
G1 F1800 X122.981 Y93.11 E19.23653
G0 X123.051 Y93.04
G0 F5400 X122.415 Y93.11
G1 F1800 X119.553 Y95.972 E19.30384
G0 X119.483 Y96.042
G0 F5400 X119.553 Y95.407
G1 F1800 X121.85 Y93.11 E19.35786
G0 X121.92 Y93.04
G0 F5400 X121.284 Y93.11
G1 F1800 X119.553 Y94.841 E19.39857
G0 X119.483 Y94.911
G0 F5400 X119.553 Y94.275
G1 F1800 X120.718 Y93.11 E19.42597
G0 X120.788 Y93.04
G0 F5400 X120.152 Y93.11
G1 F1800 X119.553 Y93.71 E19.44007
G0 X119.483 Y93.78
G0 F5400 X122.465 Y95.322
G1 F1800 X124.678 Y93.11 E19.49211
G0 X124.748 Y93.04
G0 F5400 X125.244 Y93.11
G1 F1800 X123.031 Y95.322 E19.54414
G0 X122.961 Y95.392
G0 F5400 X123.597 Y95.322
G1 F1800 X125.809 Y93.11 E19.59616
G0 X125.879 Y93.04
G0 F5400 X126.375 Y93.11
G1 F1800 X124.163 Y95.322 E19.64819
G0 X124.093 Y95.392
G0 F5400 X124.728 Y95.322
G1 F1800 X126.941 Y93.11 E19.70022
G0 X127.011 Y93.04
G0 F5400 X127.506 Y93.11
G1 F1800 X125.294 Y95.322 E19.75224
G0 X125.224 Y95.392
G0 F5400 X125.86 Y95.322
G1 F1800 X128.072 Y93.11 E19.80427
G0 X128.142 Y93.04
G0 F5400 X128.638 Y93.11
G1 F1800 X126.425 Y95.322 E19.8563
G0 X126.355 Y95.392
G0 F5400 X126.991 Y95.322
G1 F1800 X129.203 Y93.11 E19.90833
G0 X129.273 Y93.04
G0 F5400 X129.769 Y93.11
G1 F1800 X127.557 Y95.322 E19.96035
G0 X127.487 Y95.392
G0 F5400 X128.122 Y95.322
G1 F1800 X130.335 Y93.11 E20.01238
G0 X130.405 Y93.04
G0 F5400 X130.444 Y93.566
G1 F1800 X128.688 Y95.322 E20.05368
G0 X128.618 Y95.392
G0 F5400 X129.254 Y95.322
